src/extras-unicode/symbol-other/25E9.svg

<?xml version="1.0" encoding="UTF-8"?>
<svg id="emoji" xmlns="http://www.w3.org/2000/svg" viewBox="0 0 72 72">
  <g id="grid">
    <path d="m68,4v64H4V4h64Zm4-4H0v72h72V0Z" fill="#b3b3b3"/>
    <path d="m12.923,10.9583h46.1539c.51,0,.9992.2026,1.3598.5632.3607.3607.5633.8498.5633,1.3599v46.1537c0,.5101-.2026.9992-.5633,1.3599-.3606.3606-.8498.5633-1.3598.5633H12.9231c-.51,0-.9992-.2027-1.3598-.5633-.3607-.3607-.5633-.8498-.5633-1.3599V12.8813c0-.5101.2026-.9992.5632-1.3598.3607-.3606.8498-.5632,1.3598-.5632h0Z" fill="none" stroke="#00a5ff" stroke-miterlimit="10" stroke-width=".1"/>
    <path d="m53.7463,4H18.2537c-1.2447,0-2.2537,1.009-2.2537,2.2537v59.4926c0,1.2447,1.009,2.2537,2.2537,2.2537h35.4926c1.2447,0,2.2537-1.009,2.2537-2.2537V6.2537c0-1.2447-1.009-2.2537-2.2537-2.2537Z" fill="none" stroke="#00a5ff" stroke-miterlimit="10" stroke-width=".1"/>
    <path d="m68,53.7463V18.2537c0-1.2447-1.009-2.2537-2.2537-2.2537H6.2537c-1.2447,0-2.2537,1.009-2.2537,2.2537v35.4926c0,1.2447,1.009,2.2537,2.2537,2.2537h59.4926c1.2447,0,2.2537-1.009,2.2537-2.2537Z" fill="none" stroke="#00a5ff" stroke-miterlimit="10" stroke-width=".1"/>
    <path d="m36,65c16.0163,0,29-12.9837,29-29S52.0163,7,36,7,7,19.9837,7,36s12.9837,29,29,29Z" fill="none" stroke="#00a5ff" stroke-miterlimit="10" stroke-width=".1"/>
  </g>
  <g id="color">
    <path d="m60,12v48H12L60,12Z" fill="#fff"/>
    <path d="m12.9952,12.9336l44.8813-.0801L14.6953,59.0491l-1.9309-.0612.2309-46.0543Z" fill="#3f3f3f"/>
  </g>
  <g id="line">
    <path d="m59.0349,60H12.9649c-.2557-.0008-.5007-.1027-.6815-.2836-.1808-.1808-.2827-.4258-.2834-.6815V12.9649c.0008-.2557.1027-.5007.2836-.6815.1808-.1808.4258-.2827.6815-.2834h46.07c.2557.0008.5007.1027.6815.2836.1808.1808.2827.4258.2834.6815v46.07c-.0008.2557-.1027.5007-.2836.6815-.1808.1808-.4258.2827-.6815.2834h0Z" fill="none" stroke="#000" stroke-linejoin="round" stroke-width="2"/>
    <path d="m59,13L15,57" fill="none" stroke="#000" stroke-linecap="round" stroke-width="2"/>
  </g>
</svg>

<svg id="emoji" viewBox="0 0 72 72" xmlns="http://www.w3.org/2000/svg">
  <g id="grid">
    <path fill="#B3B3B3" d="M68 4V68H4V4H68ZM72 0H0V72H72V0Z"/>
    <path fill="none" stroke="#00A5FF" stroke-miterlimit="10" stroke-width="0.1" d="M12.923 10.9583H59.0769C59.5869 10.9583 60.0761 11.1609 60.4367 11.5215C60.7974 11.8822 61 12.3713 61 12.8814V59.0351C61 59.5452 60.7974 60.0343 60.4367 60.395C60.0761 60.7556 59.5869 60.9583 59.0769 60.9583H12.9231C12.4131 60.9583 11.9239 60.7556 11.5633 60.395C11.2026 60.0343 11 59.5452 11 59.0351V12.8813C11 12.3712 11.2026 11.8821 11.5632 11.5215C11.9239 11.1609 12.413 10.9583 12.923 10.9583V10.9583Z"/>
    <path fill="none" stroke="#00A5FF" stroke-miterlimit="10" stroke-width="0.1" d="M53.7463 4H18.2537C17.009 4 16 5.00902 16 6.2537V65.7463C16 66.991 17.009 68 18.2537 68H53.7463C54.991 68 56 66.991 56 65.7463V6.2537C56 5.00902 54.991 4 53.7463 4Z"/>
    <path fill="none" stroke="#00A5FF" stroke-miterlimit="10" stroke-width="0.1" d="M68 53.7463V18.2537C68 17.009 66.991 16 65.7463 16L6.2537 16C5.00902 16 4 17.009 4 18.2537V53.7463C4 54.991 5.00902 56 6.2537 56L65.7463 56C66.991 56 68 54.991 68 53.7463Z"/>
    <path fill="none" stroke="#00A5FF" stroke-miterlimit="10" stroke-width="0.1" d="M36 65C52.0163 65 65 52.0163 65 36C65 19.9837 52.0163 7 36 7C19.9837 7 7 19.9837 7 36C7 52.0163 19.9837 65 36 65Z"/>
  </g>
  <g id="line-supplement">
    <path fill="#000" d="M12.5 12L60.5 13L12.5 61V12Z"/>
  </g>
  <g id="color">
    <path fill="#fff" d="M60 12V60H12L60 12Z"/>
    <path fill="#3F3F3F" d="M12.5 12L60.5 13L12.5 61V12Z"/>
  </g>
  <g id="line">
    <path fill="none" stroke="#000" stroke-linejoin="round" stroke-width="2" d="M59.0349 60H12.9649C12.7092 59.9992 12.4642 59.8973 12.2834 59.7164C12.1026 59.5356 12.0007 59.2906 12 59.0349V12.9649C12.0008 12.7092 12.1027 12.4642 12.2836 12.2834C12.4644 12.1026 12.7094 12.0007 12.9651 12H59.0351C59.2908 12.0008 59.5358 12.1027 59.7166 12.2836C59.8974 12.4644 59.9993 12.7094 60 12.9651V59.0351C59.9992 59.2908 59.8973 59.5358 59.7164 59.7166C59.5356 59.8974 59.2906 59.9993 59.0349 60V60Z"/>
    <path fill="none" stroke="#000" stroke-linecap="round" stroke-width="2" d="M59 13L15 57"/>
  </g>
</svg>
